svg/emoji_u1f489.svg

<svg enable-background="new 0 0 128 128" viewBox="0 0 128 128" xmlns="http://www.w3.org/2000/svg"><linearGradient id="g" x1="14.353" x2="14.353" y1="3.25" y2="36.159" gradientTransform="matrix(-1 0 0 1 128 0)" gradientUnits="userSpaceOnUse"><stop stop-color="#E1F5FE" offset="0"/><stop stop-color="#81D4FA" offset="1"/></linearGradient><path d="m103.29 20.9 13.93-14.1c0.09-0.09 0.19-0.16 0.29-0.21l4.84-2.45c1.15-0.58 2.21 0.92 1.31 1.84l-17.56 17.77-2.81-2.85z" fill="url(#g)"/><g opacity=".2"><path d="m121.05 6.47-14.95 15.14-0.7-0.71 12.84-13.01 2.81-1.42m1.82-2.47c-0.17 0-0.34 0.04-0.52 0.13l-4.84 2.45c-0.11 0.06-0.21 0.13-0.29 0.21l-13.93 14.11 2.81 2.85 17.55-17.78c0.78-0.78 0.13-1.97-0.78-1.97z" fill="#424242"/></g><linearGradient id="f" x1="105.18" x2="105.18" y1="81" y2="107.84" gradientTransform="matrix(-1 0 0 1 128 0)" gradientUnits="userSpaceOnUse"><stop stop-color="#E1F5FE" offset="0"/><stop stop-color="#81D4FA" offset="1"/></linearGradient><polygon points="35.13 99.92 28.11 92.8 10.51 110.63 17.54 117.74" fill="url(#f)"/><linearGradient id="e" x1="20.856" x2="20.856" y1="-5.997" y2="21.728" gradientTransform="matrix(-1 0 0 1 120.15 21.251)" gradientUnits="userSpaceOnUse"><stop stop-color="#E1F5FE" offset="0"/><stop stop-color="#81D4FA" offset="1"/></linearGradient><path d="m109.62 21.61-4.22-4.27c-0.78-0.79-2.03-0.79-2.81 0l-14.21 14.34 7.03 7.12 14.21-14.33c0.77-0.79 0.77-2.07 0-2.86z" fill="url(#e)"/><g opacity=".2"><path d="m103.99 20.19 2.81 2.84-11.39 11.49-2.81-2.84 11.39-11.49m0.01-3.44c-0.51 0-1.02 0.2-1.41 0.59l-14.21 14.34 7.03 7.12 14.21-14.33c0.78-0.79 0.78-2.06 0-2.85l-4.22-4.27c-0.39-0.4-0.9-0.6-1.4-0.6z" fill="#424242"/></g><g opacity=".2"><path d="m33.95 91.16 2.81 2.84-19.23 19.47-2.81-2.85 19.23-19.46m0-4.28-23.44 23.74 7.03 7.12 23.44-23.74-7.03-7.12z" fill="#424242"/></g><linearGradient id="d" x1="82.048" x2="82.048" y1="51.25" y2="121.83" gradientTransform="matrix(-1 0 0 1 128 0)" gradientUnits="userSpaceOnUse"><stop stop-color="#E1F5FE" offset="0"/><stop stop-color="#81D4FA" offset="1"/></linearGradient><path d="m42.75 104.74c-0.79 0.8-2.05 0.81-2.83 0.02l-16.87-17.08c-0.78-0.79-0.77-2.07 0.02-2.87l26.68-27.03 19.67 19.93-26.67 27.03z" fill="url(#d)"/><linearGradient id="c" x1="49.243" x2="49.243" y1="36" y2="62.922" gradientTransform="matrix(-1 0 0 1 128 0)" gradientUnits="userSpaceOnUse"><stop stop-color="#EF5350" offset=".0046296"/><stop stop-color="#E53935" offset="1"/></linearGradient><path d="m49.75 57.78 37.74-38.23c0.79-0.8 2.05-0.81 2.83-0.02l16.86 17.08c0.78 0.79 0.77 2.07-0.02 2.87l-37.73 38.23-19.68-19.93z" fill="url(#c)"/><linearGradient id="b" x1="111.32" x2="111.32" y1="100.25" y2="127.5" gradientTransform="matrix(-1 0 0 1 128 0)" gradientUnits="userSpaceOnUse"><stop stop-color="#81D4FA" offset="0"/><stop stop-color="#29B6F6" offset="1"/></linearGradient><path d="m28.87 116.16-17.13-17.36c-0.78-0.79-2.21-0.61-3.19 0.39l-3.68 3.72c-0.99 1-1.16 2.45-0.38 3.23l17.14 17.37c0.78 0.79 2.21 0.61 3.19-0.39l3.68-3.72c0.98-1 1.15-2.45 0.37-3.24z" fill="url(#b)"/><polygon points="60.43 74.29 35.13 99.92 28.11 92.8 53.4 67.17 46.94 60.63 49.75 57.78 69.43 77.71 66.62 80.56" fill="#C5CAE9" opacity=".3"/><g opacity=".2"><path d="m10.33 101.65 15.73 15.94-3.04 3.07-15.72-15.94 3.03-3.07m0.16-3.35c-0.65 0-1.37 0.3-1.94 0.88l-3.68 3.72c-0.99 1-1.16 2.45-0.38 3.23l17.14 17.37c0.33 0.33 0.77 0.49 1.25 0.49 0.65 0 1.37-0.3 1.94-0.88l3.68-3.72c0.99-1 1.16-2.45 0.38-3.23l-17.14-17.36c-0.33-0.34-0.77-0.5-1.25-0.5z" fill="#424242"/></g><g fill="#eee"><polygon points="66.51 60.73 56.66 50.75 55.25 52.18 65.11 62.15" opacity=".7"/><polygon points="65.11 50.77 60.88 46.48 59.47 47.9 63.7 52.19" opacity=".7"/><polygon points="74.96 52.19 65.1 42.21 63.7 43.63 73.55 53.61" opacity=".7"/><polygon points="73.55 42.22 69.32 37.94 67.92 39.36 72.15 43.65" opacity=".7"/><polygon points="83.4 43.65 73.54 33.67 72.14 35.09 82 45.07" opacity=".7"/><polygon points="81.99 33.68 77.76 29.4 76.36 30.82 80.59 35.1" opacity=".7"/><polygon points="91.84 35.1 81.98 25.13 80.58 26.55 90.44 36.53" opacity=".7"/><polygon points="90.44 25.14 86.21 20.86 84.8 22.28 89.03 26.56" opacity=".7"/></g><g opacity=".2"><path d="m88.91 22.38 15.46 15.66-37.08 37.56-25.97 26.31-15.46-15.66 26.03-26.37 37.02-37.5m0.01-3.43c-0.52 0-1.04 0.2-1.43 0.6l-37.74 38.23-26.68 27.03c-0.79 0.8-0.8 2.08-0.02 2.87l16.86 17.08c0.38 0.39 0.89 0.58 1.4 0.58 0.52 0 1.04-0.2 1.43-0.6l26.68-27.03 37.74-38.23c0.79-0.8 0.8-2.08 0.02-2.87l-16.86-17.08c-0.38-0.39-0.89-0.58-1.4-0.58z" fill="#424242"/></g><linearGradient id="a" x1="96.155" x2="96.155" y1="73.5" y2="109.53" gradientTransform="matrix(-1 0 0 1 128 0)" gradientUnits="userSpaceOnUse"><stop stop-color="#E1F5FE" offset="0"/><stop stop-color="#81D4FA" offset="1"/></linearGradient><path d="m46.42 103.04-21.72-21.98c-1.77-1.79-6.06-0.37-7.83 1.42-0.56 0.56-0.56 1.48 0 2.05l26.12 26.43c0.56 0.56 1.46 0.56 2.02 0 1.78-1.79 3.18-6.13 1.41-7.92z" fill="url(#a)"/><g opacity=".2"><path d="m22.34 83.23c0.16 0 0.26 0.02 0.31 0.03l21.55 21.81c0.13 0.43-0.06 1.46-0.46 2.39l-23.43-23.71c0.66-0.3 1.41-0.52 2.03-0.52m0-3c-1.94 0-4.27 1.04-5.47 2.25-0.56 0.56-0.56 1.48 0 2.05l26.12 26.43c0.28 0.28 0.65 0.42 1.01 0.42s0.73-0.14 1.01-0.42c1.77-1.79 3.18-6.13 1.41-7.92l-21.72-21.98c-0.58-0.58-1.42-0.83-2.36-0.83z" fill="#424242"/></g></svg>

<svg width="128" height="128" style="enable-background:new 0 0 128 128;" xmlns="http://www.w3.org/2000/svg" xmlns:xlink="http://www.w3.org/1999/xlink">
  <g>
    <linearGradient id="SVGID_1_" gradientTransform="matrix(-1 0 0 1 128 0)" gradientUnits="userSpaceOnUse" x1="14.3533" x2="14.3533" y1="3.25" y2="36.1592">
      <stop offset="0" style="stop-color:#E1F5FE"/>
      <stop offset="1" style="stop-color:#81D4FA"/>
    </linearGradient>
    <path d="M103.29,20.9L117.22,6.8c0.09-0.09,0.19-0.16,0.29-0.21l4.84-2.45 c1.15-0.58,2.21,0.92,1.31,1.84L106.1,23.75L103.29,20.9z" style="fill:url(#SVGID_1_);"/>
    <g style="opacity:0.2;">
      <path d="M121.05,6.47L106.1,21.61l-0.7-0.71l12.84-13.01L121.05,6.47 M122.87,4 c-0.17,0-0.34,0.04-0.52,0.13l-4.84,2.45c-0.11,0.06-0.21,0.13-0.29,0.21L103.29,20.9l2.81,2.85l17.55-17.78 C124.43,5.19,123.78,4,122.87,4L122.87,4z" style="fill:#424242;"/>
    </g>
    <linearGradient id="SVGID_2_" gradientTransform="matrix(-1 0 0 1 128 0)" gradientUnits="userSpaceOnUse" x1="105.1772" x2="105.1772" y1="81" y2="107.8445">
      <stop offset="0" style="stop-color:#E1F5FE"/>
      <stop offset="1" style="stop-color:#81D4FA"/>
    </linearGradient>
    <polygon points="35.13,99.92 28.11,92.8 10.51,110.63 17.54,117.74 " style="fill:url(#SVGID_2_);"/>
    <linearGradient id="SVGID_3_" gradientTransform="matrix(-1 0 0 1 120.1464 21.2507)" gradientUnits="userSpaceOnUse" x1="20.8557" x2="20.8557" y1="-5.997" y2="21.7279">
      <stop offset="0" style="stop-color:#E1F5FE"/>
      <stop offset="1" style="stop-color:#81D4FA"/>
    </linearGradient>
    <path d="M109.62,21.61l-4.22-4.27c-0.78-0.79-2.03-0.79-2.81,0L88.38,31.68l7.03,7.12l14.21-14.33 C110.39,23.68,110.39,22.4,109.62,21.61z" style="fill:url(#SVGID_3_);"/>
    <g style="opacity:0.2;">
      <path d="M103.99,20.19l2.81,2.84L95.41,34.52l-2.81-2.84L103.99,20.19 M104,16.75 c-0.51,0-1.02,0.2-1.41,0.59L88.38,31.68l7.03,7.12l14.21-14.33c0.78-0.79,0.78-2.06,0-2.85l-4.22-4.27 C105.01,16.95,104.5,16.75,104,16.75L104,16.75z" style="fill:#424242;"/>
    </g>
    <g style="opacity:0.2;">
      <path d="M33.95,91.16L36.76,94l-19.23,19.47l-2.81-2.85L33.95,91.16 M33.95,86.88l-23.44,23.74l7.03,7.12 L40.98,94L33.95,86.88L33.95,86.88z" style="fill:#424242;"/>
    </g>
    <g>
      <linearGradient id="SVGID_4_" gradientTransform="matrix(-1 0 0 1 128 0)" gradientUnits="userSpaceOnUse" x1="82.0485" x2="82.0485" y1="51.25" y2="121.8262">
        <stop offset="0" style="stop-color:#E1F5FE"/>
        <stop offset="1" style="stop-color:#81D4FA"/>
      </linearGradient>
      <path d="M42.75,104.74c-0.79,0.8-2.05,0.81-2.83,0.02L23.05,87.68c-0.78-0.79-0.77-2.07,0.02-2.87 l26.68-27.03l19.67,19.93L42.75,104.74z" style="fill:url(#SVGID_4_);"/>
      <linearGradient id="SVGID_5_" gradientTransform="matrix(-1 0 0 1 128 0)" gradientUnits="userSpaceOnUse" x1="49.2434" x2="49.2434" y1="36" y2="62.9223">
        <stop offset="4.629630e-03" style="stop-color:#EF5350"/>
        <stop offset="1" style="stop-color:#E53935"/>
      </linearGradient>
      <path d="M49.75,57.78l37.74-38.23c0.79-0.8,2.05-0.81,2.83-0.02l16.86,17.08 c0.78,0.79,0.77,2.07-0.02,2.87L69.43,77.71L49.75,57.78z" style="fill:url(#SVGID_5_);"/>
    </g>
    <linearGradient id="SVGID_6_" gradientTransform="matrix(-1 0 0 1 128 0)" gradientUnits="userSpaceOnUse" x1="111.3198" x2="111.3198" y1="100.25" y2="127.5046">
      <stop offset="0" style="stop-color:#81D4FA"/>
      <stop offset="1" style="stop-color:#29B6F6"/>
    </linearGradient>
    <path d="M28.87,116.16L11.74,98.8c-0.78-0.79-2.21-0.61-3.19,0.39l-3.68,3.72 c-0.99,1-1.16,2.45-0.38,3.23l17.14,17.37c0.78,0.79,2.21,0.61,3.19-0.39l3.68-3.72C29.48,118.4,29.65,116.95,28.87,116.16z" style="fill:url(#SVGID_6_);"/>
    <polygon points="60.43,74.29 35.13,99.92 28.11,92.8 53.4,67.17 46.94,60.63 49.75,57.78 69.43,77.71 66.62,80.56 " style="opacity:0.3;fill:#C5CAE9;"/>
    <g style="opacity:0.2;">
      <path d="M10.33,101.65l15.73,15.94l-3.04,3.07L7.3,104.72L10.33,101.65 M10.49,98.3 c-0.65,0-1.37,0.3-1.94,0.88l-3.68,3.72c-0.99,1-1.16,2.45-0.38,3.23l17.14,17.37c0.33,0.33,0.77,0.49,1.25,0.49 c0.65,0,1.37-0.3,1.94-0.88l3.68-3.72c0.99-1,1.16-2.45,0.38-3.23L11.74,98.8C11.41,98.46,10.97,98.3,10.49,98.3L10.49,98.3z" style="fill:#424242;"/>
    </g>
    <g>
      <polygon points="66.51,60.73 56.66,50.75 55.25,52.18 65.11,62.15 " style="opacity:0.7;fill:#EEEEEE;"/>
      <polygon points="65.11,50.77 60.88,46.48 59.47,47.9 63.7,52.19 " style="opacity:0.7;fill:#EEEEEE;"/>
      <polygon points="74.96,52.19 65.1,42.21 63.7,43.63 73.55,53.61 " style="opacity:0.7;fill:#EEEEEE;"/>
      <polygon points="73.55,42.22 69.32,37.94 67.92,39.36 72.15,43.65 " style="opacity:0.7;fill:#EEEEEE;"/>
      <polygon points="83.4,43.65 73.54,33.67 72.14,35.09 82,45.07 " style="opacity:0.7;fill:#EEEEEE;"/>
      <polygon points="81.99,33.68 77.76,29.4 76.36,30.82 80.59,35.1 " style="opacity:0.7;fill:#EEEEEE;"/>
      <polygon points="91.84,35.1 81.98,25.13 80.58,26.55 90.44,36.53 " style="opacity:0.7;fill:#EEEEEE;"/>
      <polygon points="90.44,25.14 86.21,20.86 84.8,22.28 89.03,26.56 " style="opacity:0.7;fill:#EEEEEE;"/>
    </g>
    <g style="opacity:0.2;">
      <path d="M88.91,22.38l15.46,15.66L67.29,75.6l-25.97,26.31L25.86,86.25l26.03-26.37L88.91,22.38 M88.92,18.95c-0.52,0-1.04,0.2-1.43,0.6L49.75,57.78L23.07,84.81c-0.79,0.8-0.8,2.08-0.02,2.87l16.86,17.08 c0.38,0.39,0.89,0.58,1.4,0.58c0.52,0,1.04-0.2,1.43-0.6l26.68-27.03l37.74-38.23c0.79-0.8,0.8-2.08,0.02-2.87L90.32,19.53 C89.94,19.14,89.43,18.95,88.92,18.95L88.92,18.95z" style="fill:#424242;"/>
    </g>
    <linearGradient id="SVGID_7_" gradientTransform="matrix(-1 0 0 1 128 0)" gradientUnits="userSpaceOnUse" x1="96.1548" x2="96.1548" y1="73.5" y2="109.5321">
      <stop offset="0" style="stop-color:#E1F5FE"/>
      <stop offset="1" style="stop-color:#81D4FA"/>
    </linearGradient>
    <path d="M46.42,103.04L24.7,81.06c-1.77-1.79-6.06-0.37-7.83,1.42l0,0c-0.56,0.56-0.56,1.48,0,2.05 l26.12,26.43c0.56,0.56,1.46,0.56,2.02,0h0C46.79,109.17,48.19,104.83,46.42,103.04z" style="fill:url(#SVGID_7_);"/>
    <g style="opacity:0.2;">
      <path d="M22.34,83.23c0.16,0,0.26,0.02,0.31,0.03l21.55,21.81c0.13,0.43-0.06,1.46-0.46,2.39L20.31,83.75 C20.97,83.45,21.72,83.23,22.34,83.23 M22.34,80.23c-1.94,0-4.27,1.04-5.47,2.25c-0.56,0.56-0.56,1.48,0,2.05l26.12,26.43 c0.28,0.28,0.65,0.42,1.01,0.42s0.73-0.14,1.01-0.42c1.77-1.79,3.18-6.13,1.41-7.92L24.7,81.06 C24.12,80.48,23.28,80.23,22.34,80.23L22.34,80.23z" style="fill:#424242;"/>
    </g>
  </g>
</svg>
